assets/icons/uE00C-dashboard.svg

<svg xmlns="http://www.w3.org/2000/svg" width="896" height="1232" viewBox="0 0 896 1232"><path d="M448 56q185 0 316.5 131.5T896 504 764.5 820.5 448 952 131.5 820.5 0 504t131.5-316.5T448 56zm0 840q162 0 277-114.5T840 504q0-162-115-277T448 112q-163 0-277.5 115T56 504q0 163 114.5 277.5T448 896zM320 356l-57-57q-11 9-20 20l57 57q9-11 20-20zm-47 60l-74-31q-8 18-11 27l74 31q3-9 11-27zm189-188h-29v81q3 0 8-.5t7-.5q3 0 7.5.5t6.5.5v-81zm-75 90l-31-74q-9 3-27 11l31 74q20-9 27-11zm321 94q-3-9-11-27l-74 31q8 18 11 27zm-55-93q-9-11-20-20l-57 57q11 9 20 20zm-86-64q-18-8-27-11l-31 74q9 3 27 11zm-49 403q0-46-42-64V392q0-11-8.5-19.5T448 364q-12 0-20 8.5t-8 19.5v202q-42 18-42 64 0 29 20.5 49.5T448 728t49.5-20.5T518 658zm-70-490q140 0 238 98t98 238-98 238-238 98-238-98-98-238 98-238 238-98zm0 644q128 0 218-90t90-218-90-218-218-90-218 90-90 218 90 218 218 90z"/></svg>

<?xml version="1.0" encoding="UTF-8" standalone="no"?><svg   xmlns:svg="http://www.w3.org/2000/svg"   xmlns="http://www.w3.org/2000/svg"   version="1.1"   width="896"   height="1232"   viewBox="0 0 896 1232">  <path     d="M448 56Q633 56 764.5 187.5T896 504T764.5 820.5T448 952T131.5 820.5T0 504T131.5 187.5T448 56zM448 896Q610 896 725 781.5T840 504Q840 342 725 227T448 112Q285 112 170.5 227T56 504Q56 667 170.5 781.5T448 896zM320 356L263 299Q252 308 243 319L300 376Q309 365 320 356zM273 416L199 385Q191 403 188 412L262 443Q265 434 273 416zM462 228H448H433V309Q436 309 441 308.5T448 308Q451 308 455.5 308.5T462 309V228zM387 318L356 244Q347 247 329 255L360 329Q380 320 387 318zM708 412Q705 403 697 385L623 416Q631 434 634 443zM653 319Q644 308 633 299L576 356Q587 365 596 376zM567 255Q549 247 540 244L509 318Q518 321 536 329zM518 658Q518 612 476 594V392Q476 381 467.5 372.5T448 364Q436 364 428 372.5T420 392V594Q378 612 378 658Q378 687 398.5 707.5T448 728T497.5 707.5T518 658zM448 168Q588 168 686 266T784 504T686 742T448 840T210 742T112 504T210 266T448 168zM448 812Q576 812 666 722T756 504T666 286T448 196T230 286T140 504T230 722T448 812z"     id="icon243" /></svg>
